lib/assets/icons/svg/outlined-content-brightness.svg

<svg viewBox="0 0 24 24" xmlns="http://www.w3.org/2000/svg">
  <path  d="M 12.055 16.055 C 9.846 16.055 8.055 14.264 8.055 12.055 C 8.055 9.846 9.846 8.055 12.055 8.055 C 14.264 8.055 16.055 9.846 16.055 12.055 C 16.061 13.123 15.64 14.149 14.885 14.905 C 14.131 15.648 13.113 16.061 12.055 16.055 Z M 8.855 12.055 C 8.901 14.51 11.588 15.995 13.691 14.727 C 15.794 13.459 15.737 10.39 13.587 9.203 C 13.118 8.944 12.591 8.807 12.055 8.805 C 10.25 8.776 8.781 10.25 8.815 12.055 Z M 12.055 6.855 C 11.801 6.855 11.595 6.649 11.595 6.395 L 11.595 3.055 C 11.595 2.801 11.801 2.595 12.055 2.595 C 12.307 2.6 12.51 2.803 12.515 3.055 L 12.515 6.395 C 12.51 6.647 12.307 6.85 12.055 6.855 Z M 12.055 21.405 C 11.799 21.411 11.589 21.201 11.595 20.945 L 11.595 17.605 C 11.595 17.351 11.801 17.145 12.055 17.145 C 12.307 17.15 12.51 17.353 12.515 17.605 L 12.515 20.945 C 12.515 21.199 12.309 21.405 12.055 21.405 Z M 6.395 12.465 L 3.055 12.465 C 2.697 12.412 2.53 11.992 2.755 11.708 C 2.829 11.614 2.937 11.552 3.055 11.535 L 6.395 11.535 C 6.753 11.588 6.92 12.008 6.695 12.292 C 6.621 12.386 6.513 12.448 6.395 12.465 Z M 20.945 12.465 L 17.605 12.465 C 17.247 12.412 17.08 11.992 17.305 11.708 C 17.379 11.614 17.487 11.552 17.605 11.535 L 20.945 11.535 C 21.303 11.588 21.47 12.008 21.245 12.292 C 21.171 12.386 21.063 12.448 20.945 12.465 Z M 5.645 18.825 C 5.524 18.821 5.41 18.771 5.325 18.685 C 5.146 18.505 5.146 18.215 5.325 18.035 L 7.675 15.675 C 7.862 15.505 8.148 15.505 8.335 15.675 C 8.515 15.858 8.515 16.152 8.335 16.335 L 5.975 18.685 C 5.888 18.773 5.769 18.824 5.645 18.825 Z M 15.995 8.485 C 15.871 8.484 15.752 8.433 15.665 8.345 C 15.486 8.165 15.486 7.875 15.665 7.695 L 18.055 5.335 C 18.295 5.075 18.727 5.172 18.832 5.51 C 18.885 5.679 18.836 5.864 18.705 5.985 L 16.315 8.345 C 16.23 8.431 16.116 8.481 15.995 8.485 Z M 8.055 8.475 C 7.935 8.477 7.819 8.43 7.735 8.345 L 5.325 5.985 C 5.085 5.725 5.217 5.302 5.562 5.224 C 5.71 5.191 5.864 5.233 5.975 5.335 L 8.335 7.695 C 8.583 7.947 8.465 8.374 8.122 8.463 C 8.1 8.468 8.078 8.473 8.055 8.475 Z M 18.355 18.825 C 18.231 18.824 18.112 18.773 18.025 18.685 L 15.665 16.325 C 15.486 16.145 15.486 15.855 15.665 15.675 C 15.848 15.494 16.142 15.494 16.325 15.675 L 18.675 18.055 C 18.854 18.235 18.854 18.525 18.675 18.705 C 18.588 18.785 18.473 18.829 18.355 18.825 Z"/>
</svg>

<svg xmlns="http://www.w3.org/2000/svg" viewBox="0 0 24 24"><path d="M12.055 16.055a4 4 0 1 1 4-4 4 4 0 0 1-1.17 2.85 4 4 0 0 1-2.83 1.15zm-3.2-4c.046 2.455 2.733 3.94 4.836 2.672 2.103-1.268 2.046-4.337-.104-5.524a3.194 3.194 0 0 0-1.532-.398 3.19 3.19 0 0 0-3.24 3.25zm3.2-5.2a.46.46 0 0 1-.46-.46v-3.34a.46.46 0 0 1 .46-.46.47.47 0 0 1 .46.46v3.34a.47.47 0 0 1-.46.46zm0 14.55a.45.45 0 0 1-.46-.46v-3.34a.46.46 0 0 1 .46-.46.47.47 0 0 1 .46.46v3.34a.46.46 0 0 1-.46.46zm-5.66-8.94h-3.34a.47.47 0 0 1 0-.93h3.34a.47.47 0 0 1 0 .93zm14.55 0h-3.34a.47.47 0 0 1 0-.93h3.34a.47.47 0 0 1 0 .93zm-15.3 6.36a.47.47 0 0 1-.32-.14.46.46 0 0 1 0-.65l2.35-2.36a.49.49 0 0 1 .66 0 .47.47 0 0 1 0 .66l-2.36 2.35a.47.47 0 0 1-.33.14zm10.35-10.34a.47.47 0 0 1-.33-.14.46.46 0 0 1 0-.65l2.39-2.36a.46.46 0 1 1 .65.65l-2.39 2.36a.47.47 0 0 1-.32.14zm-7.94-.01a.44.44 0 0 1-.32-.13l-2.41-2.36a.46.46 0 0 1 .65-.65l2.36 2.36a.46.46 0 0 1-.213.768c-.022.005-.044.01-.067.012zm10.3 10.35a.47.47 0 0 1-.33-.14l-2.36-2.36a.46.46 0 0 1 0-.65.469.469 0 0 1 .66 0l2.35 2.38a.46.46 0 0 1 0 .65.452.452 0 0 1-.32.12z"/></svg>
